svgs/bolt_courier.svg

<svg xmlns="http://www.w3.org/2000/svg" width="192" height="192" viewBox="0 0 192 192"><defs><style>.cls-1,.cls-2,.cls-4{fill:none;stroke:#000;stroke-width:10px}.cls-1,.cls-4{stroke-linecap:round}.cls-4{stroke-linejoin:round}</style></defs><circle cx="96" cy="170.9" r="5.1"/><path class="cls-1" d="M133 126.25v22.32m0-10.84h9.56m0 20.41c-5.93 0-9.44-4.57-9.56-9.57m-12.76-27.43v37"/><circle class="cls-2" cx="96" cy="146.66" r="11.48"/><path class="cls-1" d="M49.44 121.14v37m0-37h10.84m-10.84 19.14h13.39m-13.39 17.86h13.39m0 0c12.12 0 12.12-17.86 0-17.86"/><path class="cls-1" d="M60.28 140.28c12.12 0 12.12-19.14 0-19.14"/><circle class="cls-2" cx="123.48" cy="78.65" r="11.48"/><circle class="cls-2" cx="68.52" cy="78.65" r="11.48"/><path d="M99.68 42a5.81 5.81 0 0 1 4 1q2.13 4 4.32 8M96 78.65c-.12-4.78.12-9.57 0-14.35l-7.54-6.1a4.48 4.48 0 0 1-.36-4.67" style="fill-rule:evenodd;stroke-linejoin:round;stroke-linecap:round;fill:none;stroke:#000;stroke-width:10px"/><path class="cls-4" d="m88.1 53.53 11.58-11.57m8.34 9.06 7.52 2.73"/><rect x="104.66" y="25.05" width="6.11" height="6.11" rx="3.06" style="stroke-linejoin:round;stroke-linecap:round;stroke:#000;stroke-width:10px"/><path class="cls-4" d="M67.143 32.576 78.718 21l9.645 9.645-11.575 11.576z"/></svg>

<svg xmlns="http://www.w3.org/2000/svg" width="192" height="192" viewBox="0 0 192 192"><defs><style>.cls-1,.cls-2,.cls-3,.cls-4{fill:none;stroke:#000;stroke-width:10px}.cls-1,.cls-3,.cls-4{stroke-linecap:round}.cls-3,.cls-4{stroke-linejoin:round}.cls-3{fill-rule:evenodd}</style></defs><circle cx="96" cy="170.9" r="5.1"/><path class="cls-1" d="M133 126.25v22.32M133 137.73h9.56M142.56 158.14c-5.93 0-9.44-4.57-9.56-9.57M120.24 121.14v37"/><circle class="cls-2" cx="96" cy="146.66" r="11.48"/><path class="cls-1" d="M49.44 121.14v37M49.44 121.14h10.84M49.44 140.28h13.39M49.44 158.14h13.39M62.83 158.14c12.12 0 12.12-17.86 0-17.86"/><path class="cls-1" d="M60.28 140.28c12.12 0 12.12-19.14 0-19.14"/><circle class="cls-2" cx="123.48" cy="78.65" r="11.48"/><circle class="cls-2" cx="68.52" cy="78.65" r="11.48"/><path class="cls-3" d="M99.68 42a5.81 5.81 0 0 1 4 1q2.13 4 4.32 8M96 78.65c-.12-4.78.12-9.57 0-14.35l-7.54-6.1a4.48 4.48 0 0 1-.36-4.67"/><path class="cls-4" d="m88.1 53.53 11.58-11.57M108.02 51.02l7.52 2.73"/><rect x="104.66" y="25.05" width="6.11" height="6.11" rx="3.06" style="stroke-linejoin:round;stroke-linecap:round;stroke:#000;stroke-width:10px"/><path class="cls-4" d="M67.143 32.576 78.718 21l9.645 9.645-11.575 11.576z"/></svg>
